X:69
T:Polska
S:Felicity 
R:Polska
O:Sweden
M:3/4
K:D
A>c de f>a | a<f ge f2 | \
d2 c/d/c/A/ B>G | G<B A4 |\
A>c de f>a | af ge f4 | \
a2 g/a/g/e/ f>d | e<c d4 :|\
|:\
A2 fd A>G | G2 BA/G/ A2- | A2 EF G>A |\
 BA/G/ A4- | A2 fd A>G | \
G2 BA/B/ A2- | A>c d>e f>d | e<c d4 :|
